svg/bookmark_box_multiple_outline.svg

<svg xmlns="http://www.w3.org/2000/svg" viewBox="0 0 24 24"><path d="M4 20h14v2H4c-1.1 0-2-.9-2-2V6h2zM22 4v12c0 1.1-.9 2-2 2H8c-1.1 0-2-.9-2-2V4c0-1.1.9-2 2-2h12c1.1 0 2 .9 2 2m-2 0H8v12h12zm-2 2h-5v7l2.5-1.5L18 13z"/></svg>

<svg xmlns="http://www.w3.org/2000/svg" id="mdi-bookmark-box-multiple-outline" viewBox="0 0 24 24"><path d="M4 20H18V22H4C2.9 22 2 21.1 2 20V6H4V20M22 4V16C22 17.1 21.1 18 20 18H8C6.9 18 6 17.1 6 16V4C6 2.9 6.9 2 8 2H20C21.1 2 22 2.9 22 4M20 4H8V16H20V4M18 6H13V13L15.5 11.5L18 13V6Z" /></svg>
